icons/circle/48/towerfall-ascension.svg

<svg version="1.1" viewBox="0 0 48 48" xmlns="http://www.w3.org/2000/svg">
 <defs>
  <linearGradient id="bg" x2="0" y1="1" y2="47" gradientUnits="userSpaceOnUse">
   <stop stop-color="#eee5aa" offset="0"/>
   <stop stop-color="#ebe099" offset="1"/>
  </linearGradient>
 </defs>
 <path d="m36.31 5c5.859 4.062 9.688 10.831 9.688 18.5 0 12.426-10.07 22.5-22.5 22.5-7.669 0-14.438-3.828-18.5-9.688 1.037 1.822 2.306 3.499 3.781 4.969 4.085 3.712 9.514 5.969 15.469 5.969 12.703 0 23-10.298 23-23 0-5.954-2.256-11.384-5.969-15.469-1.469-1.475-3.147-2.744-4.969-3.781zm4.969 3.781c3.854 4.113 6.219 9.637 6.219 15.719 0 12.703-10.297 23-23 23-6.081 0-11.606-2.364-15.719-6.219 4.16 4.144 9.883 6.719 16.219 6.719 12.703 0 23-10.298 23-23 0-6.335-2.575-12.06-6.719-16.219z" opacity=".05"/>
 <path d="m41.28 8.781c3.712 4.085 5.969 9.514 5.969 15.469 0 12.703-10.297 23-23 23-5.954 0-11.384-2.256-15.469-5.969 4.113 3.854 9.637 6.219 15.719 6.219 12.703 0 23-10.298 23-23 0-6.081-2.364-11.606-6.219-15.719z" opacity=".1"/>
 <path d="m31.25 2.375c8.615 3.154 14.75 11.417 14.75 21.13 0 12.426-10.07 22.5-22.5 22.5-9.708 0-17.971-6.135-21.12-14.75a23 23 0 0 0 44.875-7 23 23 0 0 0-16-21.875z" opacity=".2"/>
 <circle cx="24" cy="24" r="23" fill="url(#bg)"/>
 <path d="m40.03 7.531c3.712 4.084 5.969 9.514 5.969 15.469 0 12.703-10.297 23-23 23-5.954 0-11.384-2.256-15.469-5.969 4.178 4.291 10.01 6.969 16.469 6.969 12.703 0 23-10.298 23-23 0-6.462-2.677-12.291-6.969-16.469z" opacity=".1"/>
 <path transform="translate(1 2)" d="m12 12 8 2-2 2 11 11 3-1 4 4-3 1 1 1-2 2-1-1-1 3-4-4 1-3-11-11-2 2zm24 0-2 8-2-2-11 11 1 3-4 4-1-3-1 1-2-2 1-1-3-1 4-4 3 1 11-11-2-2z" opacity=".1"/>
 <g transform="translate(0 1)">
  <path d="m29 27 3-1 4 4-3 1-2 2-1 3-4-4 1-3z" fill="#c42"/>
  <path d="m14 16 2-2 18 18-2 2z" fill="#532"/>
  <path d="m12 12 8 2-6 6z" fill="#888"/>
  <g transform="rotate(90 24 24)">
   <path d="m29 27 3-1 4 4-3 1-2 2-1 3-4-4 1-3z" fill="#c42"/>
   <path d="m16 14 18 18-2 2-18-18z" fill="#532"/>
   <path d="m12 12 8 2-6 6z" fill="#888"/>
  </g>
 </g>
</svg>

<svg xmlns="http://www.w3.org/2000/svg" version="1.1" viewBox="0 0 48 48">
	<defs>
		<linearGradient id="bg" gradientUnits="userSpaceOnUse" x1="0" x2="0" y1="1" y2="47">
			<stop offset="0" stop-color="#eee5aa"/>
			<stop offset="1" stop-color="#ebe099"/>
		</linearGradient>
	</defs>
	<path opacity=".05" d="m 36.31 5 c 5.859 4.062 9.688 10.831 9.688 18.5 c 0 12.426 -10.07 22.5 -22.5 22.5 c -7.669 0 -14.438 -3.828 -18.5 -9.688 c 1.037 1.822 2.306 3.499 3.781 4.969 c 4.085 3.712 9.514 5.969 15.469 5.969 c 12.703 0 23 -10.298 23 -23 c 0 -5.954 -2.256 -11.384 -5.969 -15.469 c -1.469 -1.475 -3.147 -2.744 -4.969 -3.781 z m 4.969 3.781 c 3.854 4.113 6.219 9.637 6.219 15.719 c 0 12.703 -10.297 23 -23 23 c -6.081 0 -11.606 -2.364 -15.719 -6.219 c 4.16 4.144 9.883 6.719 16.219 6.719 c 12.703 0 23 -10.298 23 -23 c 0 -6.335 -2.575 -12.06 -6.719 -16.219 z"/>
	<path opacity=".1" d="m 41.28 8.781 c 3.712 4.085 5.969 9.514 5.969 15.469 c 0 12.703 -10.297 23 -23 23 c -5.954 0 -11.384 -2.256 -15.469 -5.969 c 4.113 3.854 9.637 6.219 15.719 6.219 c 12.703 0 23 -10.298 23 -23 c 0 -6.081 -2.364 -11.606 -6.219 -15.719 z"/>
	<path opacity=".2" d="m 31.25 2.375 c 8.615 3.154 14.75 11.417 14.75 21.13 c 0 12.426 -10.07 22.5 -22.5 22.5 c -9.708 0 -17.971 -6.135 -21.12 -14.75 a 23 23 0 0 0 44.875 -7 a 23 23 0 0 0 -16 -21.875 z"/>
	<circle fill="url(#bg)" cx="24" cy="24" r="23"/>
	<path opacity=".1" d="m 40.03 7.531 c 3.712 4.084 5.969 9.514 5.969 15.469 0 12.703 -10.297 23 -23 23 c -5.954 0 -11.384 -2.256 -15.469 -5.969 4.178 4.291 10.01 6.969 16.469 6.969 c 12.703 0 23 -10.298 23 -23 0 -6.462 -2.677 -12.291 -6.969 -16.469 z"/>
	<path d="M 12,12 20,14 18,16 29,27 32,26 36,30 33,31 34,32 32,34 31,33 30,36 26,32 27,29 16,18 14,20 z M 36,12 34,20 32,18 21,29 22,32 18,36 17,33 16,34 14,32 15,31 12,30 16,26 19,27 30,16 28,14 z" opacity=".1" transform="translate(1 2)"/>
	<g transform="translate(0 1)">
		<path d="m 29,27 3,-1 4,4 -3,1 -2,2 -1,3 -4,-4 1,-3 z" fill="#c42"/>
		<path d="M 14,16 16,14 34,32 32,34 z" fill="#532"/>
		<path d="M 12,12 20,14 14,20 z" fill="#888"/>
		<g transform="rotate(90 24 24)">
			<path d="m 29,27 3,-1 4,4 -3,1 -2,2 -1,3 -4,-4 1,-3 z" fill="#c42"/>
			<path d="M 16,14 34,32 32,34 14,16 z" fill="#532"/>
			<path d="M 12,12 20,14 14,20 z" fill="#888"/>
		</g>
	</g>
</svg>
